assets/icons/twitter.svg

<svg fill="none" height="20" viewBox="0 0 24 20" width="24" xmlns="http://www.w3.org/2000/svg"><path d="m7.539 19.7042c9.057 0 14.0115-7.5045 14.0115-14.00104 0-.21 0-.423-.009-.633.9646-.69827 1.7971-1.56277 2.4585-2.553-.901.39728-1.8559.65911-2.8335.777 1.0298-.61554 1.8011-1.58404 2.1705-2.725495-.9675.573185-2.0265.975555-3.1305 1.189495-.7422-.79046-1.7244-1.314119-2.7944-1.489859-1.07-.1757404-2.168.006246-3.1241.51777-.9561.511519-1.7168 1.324039-2.1643 2.311679-.4476.98765-.5569 2.09531-.3112 3.15142-1.95789-.09818-3.87328-.6068-5.62194-1.49289s-3.29153-2.12985-4.52856-3.65062c-.62799 1.08463-.819639 2.36761-.53603 3.5884.28361 1.2208 1.02121 2.2879 2.06303 2.9846-.78069-.02652-1.54422-.23616-2.229-.612v.0675c.001346 1.13623.39496 2.23713 1.11431 3.11664.71935.8795 1.72031 1.4837 2.83369 1.7104-.42261.1164-.85916.1744-1.2975.1725-.30902.0009-.61743-.0277-.921-.0855.31468.9781.92741 1.8332 1.75237 2.4457.82496.6124 1.82083.9515 2.84813.9698-1.74517 1.3707-3.9009 2.1141-6.12 2.1105-.391019.0016-.781765-.0209-1.17-.0675 2.25227 1.4359 4.86795 2.1983 7.539 2.1975z" fill="#888"/></svg>

<svg width="24" height="20" viewBox="0 0 24 20" fill="none" xmlns="http://www.w3.org/2000/svg">
<path d="M7.539 19.7042C16.596 19.7042 21.5505 12.1997 21.5505 5.70316C21.5505 5.49316 21.5505 5.28016 21.5415 5.07016C22.5061 4.37189 23.3386 3.50739 24 2.51716C23.099 2.91444 22.1441 3.17627 21.1665 3.29416C22.1963 2.67862 22.9676 1.71012 23.337 0.568665C22.3695 1.14185 21.3105 1.54422 20.2065 1.75816C19.4643 0.9677 18.4821 0.444041 17.4121 0.268301C16.3421 0.0925606 15.2441 0.274547 14.288 0.786071C13.3319 1.29759 12.5712 2.11011 12.1237 3.09775C11.6761 4.0854 11.5668 5.19306 11.8125 6.24917C9.85461 6.15099 7.93922 5.64237 6.19056 4.75628C4.4419 3.87019 2.89903 2.62643 1.662 1.10566C1.03401 2.19029 0.842361 3.47327 1.12597 4.69406C1.40958 5.91486 2.14718 6.98196 3.189 7.67866C2.40831 7.65214 1.64478 7.4425 0.96 7.06666V7.13416C0.961346 8.27039 1.35496 9.37129 2.07431 10.2508C2.79366 11.1303 3.79462 11.7345 4.908 11.9612C4.48539 12.0776 4.04884 12.1356 3.6105 12.1337C3.30148 12.1346 2.99307 12.106 2.6895 12.0482C3.00418 13.0263 3.61691 13.8814 4.44187 14.4939C5.26683 15.1063 6.2627 15.4454 7.29 15.4637C5.54483 16.8344 3.3891 17.5778 1.17 17.5742C0.778981 17.5758 0.388235 17.5533 0 17.5067C2.25227 18.9426 4.86795 19.705 7.539 19.7042Z" fill="#888888"/>
</svg>
